assets/svg/back_arrow_dark.svg

<svg height="14" viewBox="0 0 26 14" width="26" xmlns="http://www.w3.org/2000/svg"><path d="m11.3641169 11.2928932c.3949443-.3905243 1.0352755-.3905243 1.4302198 0s.3949443 1.0236893 0 1.4142136l-4.3423367 4.2928932h21.5366819c.5186402 0 .9460953.3860402 1.0045142.8833789l.0068039.1166211c0 .5522847-.4527825 1-1.0113181 1h-21.5356819l4.3413367 4.2928932c.364564.360484.3926074.927715.0841302 1.3200062l-.0841302.0942074c-.3949443.3905243-1.0352755.3905243-1.4302198 0l-6.06790868-6-.07403299-.0816578c-.0026032-.0032073-.00518682-.0064308-.00775068-.0096703-.00532823-.0066282-.01064946-.0135243-.01586783-.0204721-.01713625-.0229625-.03329199-.0465235-.04842959-.0707719-.01031649-.0163524-.02017338-.0332353-.02949058-.0503299-.00938449-.0173397-.01838217-.0350636-.02685318-.0530786-.006661-.0141137-.01296548-.0284229-.01891532-.0428417-.00945187-.022853-.01802381-.0459919-.02573818-.0695128-.00451325-.0139579-.00886298-.0283325-.01287903-.0427787-.00607955-.0215565-.01133217-.0432469-.01585745-.0651989-.00350218-.0174188-.00661107-.0348451-.00925089-.0523272-.00733874-.0481048-.0111425-.0978466-.0111425-.1484669l.0040113.0892501c-.00209487-.0232552-.00336922-.0465691-.00382305-.0698956l-.00018825-.0193545c0-.0064062.00006092-.0127984.00018222-.019176.00042388-.0228438.0017045-.0464891.00382908-.0700741.00182008-.0205969.00419275-.0402457.00713276-.0597111.00263826-.0169878.00574715-.0344141.00932509-.0517646.00444952-.0220203.00970214-.0437107.01565611-.0651138.00414163-.0145996.00849136-.0289742.01317478-.0432651.0075442-.0231879.01611614-.0463268.02550916-.0690477.00600869-.0145509.01231317-.0288601.01897228-.0430468.0084729-.017942.01747058-.0356659.02697537-.0530793.0091969-.0170209.01905379-.0339038.02945039-.0505507.01505749-.0239539.03121323-.0475149.04832817-.0703301.02932766-.0391663.06187816-.0765534.09767281-.1119475l-.08178367.0913281c.02538217-.0320712.05270141-.0625713.08178367-.0913281z" fill="#102b44" transform="translate(-5 -11)"/></svg>

<?xml version="1.0" encoding="UTF-8"?>
<svg width="26px" height="14px" viewBox="0 0 26 14" version="1.1" xmlns="http://www.w3.org/2000/svg" xmlns:xlink="http://www.w3.org/1999/xlink">
    <!-- Generator: Sketch 63.1 (92452) - https://sketch.com -->
    <title>Combined Shape</title>
    <desc>Created with Sketch.</desc>
    <defs>
        <path d="M11.3641169,11.2928932 C11.7590612,10.9023689 12.3993924,10.9023689 12.7943367,11.2928932 C13.189281,11.6834175 13.189281,12.3165825 12.7943367,12.7071068 L12.7943367,12.7071068 L8.452,17 L29.9886819,17 C30.5073221,17 30.9347772,17.3860402 30.9931961,17.8833789 L31,18 C31,18.5522847 30.5472175,19 29.9886819,19 L29.9886819,19 L8.453,19 L12.7943367,23.2928932 C13.1589007,23.6533772 13.1869441,24.2206082 12.8784669,24.6128994 L12.7943367,24.7071068 C12.3993924,25.0976311 11.7590612,25.0976311 11.3641169,24.7071068 L11.3641169,24.7071068 L5.29620822,18.7071068 L5.29620822,18.7071068 L5.22217523,18.625449 C5.21957203,18.6222417 5.21698841,18.6190182 5.21442455,18.6157787 C5.20909632,18.6091505 5.20377509,18.6022544 5.19855672,18.5953066 C5.18142047,18.5723441 5.16526473,18.5487831 5.15012713,18.5245347 C5.13981064,18.5081823 5.12995375,18.4912994 5.12063655,18.4742048 C5.11125206,18.4568651 5.10225438,18.4391412 5.09378337,18.4211262 C5.08712237,18.4070125 5.08081789,18.3927033 5.07486805,18.3782845 C5.06541618,18.3554315 5.05684424,18.3322926 5.04912987,18.3087717 C5.04461662,18.2948138 5.04026689,18.2804392 5.03625084,18.265993 C5.03017129,18.2444365 5.02491867,18.2227461 5.02039339,18.2007941 C5.01689121,18.1833753 5.01378232,18.165949 5.0111425,18.1484669 C5.00380376,18.1003621 5,18.0506203 5,18 L5.0040113,18.0892501 C5.00191643,18.0659949 5.00064208,18.042681 5.00018825,18.0193545 L5,18 C5,17.9935938 5.00006092,17.9872016 5.00018222,17.980824 C5.0006061,17.9579802 5.00188672,17.9343349 5.0040113,17.9107499 C5.00583138,17.890153 5.00820405,17.8705042 5.01114406,17.8510388 C5.01378232,17.834051 5.01689121,17.8166247 5.02046915,17.7992742 C5.02491867,17.7772539 5.03017129,17.7555635 5.03612526,17.7341604 C5.04026689,17.7195608 5.04461662,17.7051862 5.04930004,17.6908953 C5.05684424,17.6677074 5.06541618,17.6445685 5.0748092,17.6218476 C5.08081789,17.6072967 5.08712237,17.5929875 5.09378148,17.5788008 C5.10225438,17.5608588 5.11125206,17.5431349 5.12075685,17.5257215 C5.12995375,17.5087006 5.13981064,17.4918177 5.15020724,17.4751708 C5.16526473,17.4512169 5.18142047,17.4276559 5.19853541,17.4048407 C5.22786307,17.3656744 5.26041357,17.3282873 5.29620822,17.2928932 L5.21442455,17.3842213 C5.23980672,17.3521501 5.26712596,17.32165 5.29620822,17.2928932 Z" id="path-1"></path>
    </defs>
    <g id="Symbols" stroke="none" stroke-width="1" fill="none" fill-rule="evenodd">
        <g id="Back_Arrow_Icon_Dark" transform="translate(-5.000000, -11.000000)">
            <mask id="mask-2" fill="white">
                <use xlink:href="#path-1"></use>
            </mask>
            <use id="Combined-Shape" fill="#102B44" fill-rule="nonzero" xlink:href="#path-1"></use>
        </g>
    </g>
</svg>
